X: 29711
T: Nth
R: strathspey
M: 4/4
K: Dmajor
|:f>^ef<a d2 c>d|e>^de<g B2 e>=d|c>Ac>e b>a (3gfe|1 d>cd<f A4:|2 d2 (3cdc B2 A2||
|:F>Ad>c e>dc<d|B<G (3Bcd b4|1 a>^gb>a=g>e (3cde|d<ce>d A4:|2 [g3/2c'3/2]b/g>e b>a (3gfe|f<Ae<A d4||

